src/assets/flags/ck.svg

<?xml version="1.0" encoding="UTF-8"?>
<svg xmlns="http://www.w3.org/2000/svg" xmlns:xlink="http://www.w3.org/1999/xlink" width="25px" height="px" viewBox="0 0 25 19" version="1.1">
<g id="surface1">
<rect x="0" y="0" width="25" height="19" style="fill:rgb(0%,0%,40.000001%);fill-opacity:1;stroke:none;"/>
<path style=" stroke:none;fill-rule:evenodd;fill:rgb(100%,100%,100%);fill-opacity:1;" d="M 18.421875 8.429688 L 18.625 7.769531 L 18.078125 7.351562 L 18.765625 7.34375 L 19 6.691406 L 19.21875 7.34375 L 19.910156 7.363281 L 19.359375 7.777344 L 19.554688 8.4375 L 18.988281 8.042969 M 20.046875 8.558594 L 20.453125 8.007812 L 20.074219 7.421875 L 20.726562 7.652344 L 21.15625 7.117188 L 21.15625 7.8125 L 21.796875 8.066406 L 21.140625 8.265625 L 21.109375 8.957031 L 20.710938 8.386719 M 16.867188 8.980469 L 16.839844 8.289062 L 16.183594 8.082031 L 16.835938 7.835938 L 16.835938 7.148438 L 17.261719 7.683594 L 17.917969 7.460938 L 17.535156 8.042969 L 17.9375 8.597656 L 17.273438 8.417969 M 15.726562 10.039062 L 15.4375 9.414062 L 14.757812 9.484375 L 15.257812 8.996094 L 15 8.351562 L 15.59375 8.675781 L 16.113281 8.210938 L 15.980469 8.898438 L 16.5625 9.25 L 15.886719 9.347656 M 15.195312 11.550781 L 14.675781 11.109375 L 14.089844 11.476562 L 14.339844 10.8125 L 13.835938 10.355469 L 14.511719 10.382812 L 14.785156 9.734375 L 14.953125 10.414062 L 15.625 10.472656 L 15.054688 10.863281 M 15.179688 13.253906 L 14.535156 13.0625 L 14.140625 13.636719 L 14.113281 12.929688 L 13.472656 12.710938 L 14.101562 12.464844 L 14.101562 11.753906 L 14.519531 12.308594 L 15.160156 12.089844 L 14.785156 12.683594 M 15.9375 14.691406 L 15.273438 14.789062 L 15.136719 15.476562 L 14.832031 14.84375 L 14.164062 14.90625 L 14.640625 14.421875 L 14.363281 13.769531 L 14.960938 14.109375 L 15.460938 13.640625 L 15.351562 14.328125 M 17.109375 15.832031 L 16.519531 16.15625 L 16.621094 16.855469 L 16.125 16.363281 L 15.515625 16.664062 L 15.800781 16.035156 L 15.320312 15.523438 L 15.996094 15.628906 L 16.308594 15.015625 L 16.441406 15.703125 M 18.542969 16.058594 L 18.21875 16.664062 L 18.675781 17.1875 L 17.996094 17.054688 L 17.648438 17.648438 L 17.554688 16.964844 L 16.882812 16.808594 L 17.5 16.515625 L 17.433594 15.820312 L 17.910156 16.328125 M 20.152344 15.808594 L 20.132812 16.5 L 20.769531 16.75 L 20.105469 16.949219 L 20.058594 17.640625 L 19.667969 17.078125 L 19.003906 17.25 L 19.425781 16.699219 L 19.058594 16.117188 L 19.707031 16.34375 M 21.835938 8.304688 L 22.304688 8.804688 L 22.925781 8.511719 L 22.601562 9.136719 L 23.050781 9.65625 L 22.386719 9.542969 L 22.035156 10.15625 L 21.953125 9.460938 L 21.289062 9.320312 L 21.902344 9.003906 M 23.238281 9.835938 L 23.453125 10.492188 L 24.136719 10.503906 L 23.582031 10.929688 L 23.765625 11.59375 L 23.214844 11.199219 L 22.644531 11.597656 L 22.855469 10.933594 L 22.316406 10.511719 L 23.003906 10.496094 M 23.765625 11.8125 L 23.6875 12.5 L 24.300781 12.804688 L 23.625 12.949219 L 23.519531 13.632812 L 23.179688 13.035156 L 22.5 13.148438 L 22.96875 12.636719 L 22.652344 12.019531 L 23.277344 12.304688 M 23.394531 13.882812 L 23.089844 14.5 L 23.554688 15.003906 L 22.875 14.894531 L 22.546875 15.5 L 22.429688 14.816406 L 21.75 14.683594 L 22.359375 14.367188 L 22.269531 13.679688 L 22.761719 14.167969 M 22.378906 15.714844 L 21.804688 16.078125 L 21.953125 16.761719 L 21.425781 16.308594 L 20.839844 16.648438 L 21.085938 16.003906 L 20.574219 15.523438 L 21.253906 15.582031 L 21.527344 14.949219 L 21.699219 15.632812 "/>
<path style=" stroke:none;fill-rule:nonzero;fill:rgb(0%,0%,40.000001%);fill-opacity:1;" d="M 0 0 L 12.5 0 L 12.5 9.5 L 0 9.5 Z M 0 0 "/>
<path style=" stroke:none;fill-rule:nonzero;fill:rgb(100%,100%,100%);fill-opacity:1;" d="M 1.464844 0 L 6.230469 3.582031 L 10.976562 0 L 12.5 0 L 12.5 1.226562 L 7.8125 4.769531 L 12.5 8.292969 L 12.5 9.5 L 10.9375 9.5 L 6.25 5.957031 L 1.582031 9.5 L 0 9.5 L 0 8.3125 L 4.667969 4.789062 L 0 1.265625 L 0 0 Z M 1.464844 0 "/>
<path style=" stroke:none;fill-rule:nonzero;fill:rgb(78.431374%,6.27451%,18.039216%);fill-opacity:1;" d="M 8.28125 5.5625 L 12.5 8.707031 L 12.5 9.5 L 7.207031 5.5625 Z M 4.6875 5.957031 L 4.804688 6.648438 L 1.054688 9.5 L 0 9.5 Z M 12.5 0 L 12.5 0.0585938 L 7.636719 3.78125 L 7.675781 2.910156 L 11.523438 0 Z M 0 0 L 4.667969 3.484375 L 3.496094 3.484375 L 0 0.832031 Z M 0 0 "/>
<path style=" stroke:none;fill-rule:nonzero;fill:rgb(100%,100%,100%);fill-opacity:1;" d="M 4.707031 0 L 4.707031 9.5 L 7.832031 9.5 L 7.832031 0 Z M 0 3.167969 L 0 6.332031 L 12.5 6.332031 L 12.5 3.167969 Z M 0 3.167969 "/>
<path style=" stroke:none;fill-rule:nonzero;fill:rgb(78.431374%,6.27451%,18.039216%);fill-opacity:1;" d="M 0 3.820312 L 0 5.71875 L 12.5 5.71875 L 12.5 3.820312 Z M 5.332031 0 L 5.332031 9.5 L 7.207031 9.5 L 7.207031 0 Z M 5.332031 0 "/>
</g>
</svg>

<svg xmlns="http://www.w3.org/2000/svg" width="25" height="px" viewBox="0 0 25 19"><path d="M0 0h25v19H0z" style="fill:#006;fill-opacity:1;stroke:none"/><path d="m18.422 8.43.203-.66-.547-.418.688-.008L19 6.69l.219.653.691.02-.55.413.195.66-.567-.394m1.059.516.406-.551-.379-.586.653.23.43-.535v.696l.64.253-.656.2-.032.691-.398-.57m-3.844.593-.027-.69-.656-.208.652-.246v-.688l.426.536.656-.223-.383.582.402.555-.664-.18m-1.546 1.621-.29-.625-.68.07.5-.488L15 8.352l.594.324.52-.465-.134.687.582.352-.675.098m-.692 2.203-.52-.442-.585.368.25-.665-.504-.457.676.028.273-.649.168.68.672.059-.57.39m.125 2.39-.645-.19-.394.574-.028-.707-.64-.22.629-.245v-.711l.418.555.64-.22-.375.595m1.152 2.007-.664.098-.136.688-.305-.633-.668.062.477-.484-.278-.652.598.34.5-.47-.11.688m1.758 1.504-.59.324.102.7-.496-.493-.61.301.286-.629-.48-.512.675.106.313-.613.132.687m2.102.356-.324.605.457.523-.68-.132-.348.593-.093-.683-.672-.156.617-.293-.066-.696.476.508m2.242-.52-.02.692.638.25-.665.2-.046.69-.391-.562-.664.172.422-.55-.367-.583.648.227m2.129-8.04.469.5.62-.292-.323.625.449.52-.664-.114-.352.613-.082-.695-.664-.14.613-.317m1.336.832.215.656.684.012-.555.426.184.664-.551-.395-.57.399.21-.664-.539-.422.688-.016m.762 1.316-.078.688.613.305-.676.144-.105.684-.34-.598-.68.113.469-.511-.317-.617.625.285m.118 1.578-.305.617.465.504-.68-.11-.328.606-.117-.684-.68-.132.61-.317-.09-.687.492.488m-.383 1.547-.574.363.148.684-.527-.453-.586.34.246-.645-.512-.48.68.058.273-.633.172.684" style="stroke:none;fill-rule:evenodd;fill:#fff;fill-opacity:1"/><path d="M0 0h12.5v9.5H0Zm0 0" style="stroke:none;fill-rule:nonzero;fill:#006;fill-opacity:1"/><path d="M1.465 0 6.23 3.582 10.977 0H12.5v1.227L7.813 4.77 12.5 8.293V9.5h-1.562L6.25 5.957 1.582 9.5H0V8.313l4.668-3.524L0 1.266V0Zm0 0" style="stroke:none;fill-rule:nonzero;fill:#fff;fill-opacity:1"/><path d="M8.281 5.563 12.5 8.707V9.5L7.207 5.563Zm-3.594.394.118.691L1.055 9.5H0ZM12.5 0v.059L7.637 3.78l.039-.87L11.523 0ZM0 0l4.668 3.484H3.496L0 .832Zm0 0" style="stroke:none;fill-rule:nonzero;fill:#c8102e;fill-opacity:1"/><path d="M4.707 0v9.5h3.125V0ZM0 3.168v3.164h12.5V3.168Zm0 0" style="stroke:none;fill-rule:nonzero;fill:#fff;fill-opacity:1"/><path d="M0 3.82V5.72h12.5V3.82ZM5.332 0v9.5h1.875V0Zm0 0" style="stroke:none;fill-rule:nonzero;fill:#c8102e;fill-opacity:1"/></svg>
